X:1
T:Moravia (West), SM
T:Lewis Renatus West, 1790
T:Moravia (West), SM
T:Public Domain
C:Lewis Renatus West, 1790
Z:Public Domain
%%score ( 1 2 ) ( 3 4 )
L:1/8
M:4/4
K:D
V:1 treble 
V:2 treble 
V:3 bass 
V:4 bass 
V:1
 [A,D]2 | [DF]2 [EA]2 [Dd]2 [DB]2 | [DA]6 [EG]2 | [DF]2 [A,D]2 [DF]2 [D^G]2 | [CA]6 [CA]2 | %5
 [Ee]2 [Ed]2 [Ec]2 [FA]2 | [FA]2 [E^G]2 [EA]2 [DF]2 | [Fd]2 [DF]2 [EG]2 [CE]2 | D6 |] %9
V:2
 x2 | x8 | x8 | x8 | x8 | x8 | x8 | x8 | D6 |] %9
V:3
 [D,F,]2 | [D,A,]2 [C,E,]2 [B,,F,]2 [G,,G,]2 | [D,F,]6 [C,A,]2 | [D,A,]2 [F,A,]2 [D,A,]2 [B,,B,]2 | %4
 [A,,E,]6 [A,,A,]2 | [C,A,]2 [E,^G,]2 A,2 [F,C]2 | [D,B,]2 [E,B,]2 [A,,C]2 [D,A,]2 | %7
 [B,,B,]2 (B,,A,,) [G,,B,]2 (A,G,) | [D,F,]6 |] %9
V:4
 x2 | x8 | x8 | x8 | x8 | x4 A,2 x2 | x8 | x2 B,2 x A,,2 x | x6 |] %9

